polaris-icons/icons/ThumbsUpMajor.svg

<svg viewBox="0 0 20 20" xmlns="http://www.w3.org/2000/svg">
<path fill-rule="evenodd" d="M12.539 14.5706C11.1349 14.6041 9.7416 14.3173 8.46479 13.7321L8.1577 13.5913C7.79065 13.4231 7.39966 13.3156 7 13.2722V8.04943C7.05159 8.01963 7.10156 7.98666 7.14961 7.95063C8.43643 6.98551 9.31813 5.57749 9.62537 4.00054C10.4506 4.01453 11.0897 4.73349 11.003 5.55778L10.8704 6.81714C10.7616 7.85041 11.5718 8.75034 12.6108 8.75034H14.2052C14.9635 8.75034 15.5471 9.41999 15.4435 10.1711L15.1058 12.6194C14.955 13.7126 14.0337 14.535 12.9304 14.5613L12.539 14.5706ZM5.5 8.25034H4.5V13.2503H5.5V8.25034ZM7.83981 15.0957C9.32366 15.7758 10.9429 16.1091 12.5747 16.0702L12.9662 16.0609C14.8048 16.0171 16.3404 14.6463 16.5917 12.8243L16.9294 10.3761C17.1573 8.72357 15.8734 7.25034 14.2052 7.25034H12.6108C12.4624 7.25034 12.3466 7.12177 12.3622 6.97416L12.4947 5.71481C12.6756 3.99672 11.3284 2.50034 9.60085 2.50034H9.23673C8.73718 2.50034 8.30911 2.85759 8.21975 3.34908L8.16468 3.65199C7.93973 4.88917 7.25589 5.99577 6.25 6.75034H4.25C3.55964 6.75034 3 7.30998 3 8.00034V13.5003C3 14.1907 3.55964 14.7503 4.25 14.7503H6.59525C6.91882 14.7503 7.23858 14.8201 7.53272 14.9549L7.83981 15.0957Z" fill="#5C5F62"/>
</svg>

<svg viewBox="0 0 20 20" xmlns="http://www.w3.org/2000/svg"><path fill-rule="evenodd" d="M12.539 14.57a9.249 9.249 0 0 1-4.074-.838l-.307-.14a3.751 3.751 0 0 0-1.158-.32v-5.223a1.5 1.5 0 0 0 .15-.098 6.489 6.489 0 0 0 2.475-3.95 1.41 1.41 0 0 1 1.378 1.557l-.133 1.26a1.75 1.75 0 0 0 1.74 1.932h1.595c.758 0 1.342.67 1.239 1.421l-.338 2.448a2.25 2.25 0 0 1-2.176 1.942l-.391.01Zm-7.039-6.32h-1v5h1v-5Zm2.34 6.846a10.75 10.75 0 0 0 4.735.974l.391-.01a3.75 3.75 0 0 0 3.626-3.236l.337-2.448a2.75 2.75 0 0 0-2.724-3.126h-1.594a.25.25 0 0 1-.249-.276l.133-1.26a2.91 2.91 0 0 0-2.894-3.214h-.364c-.5 0-.928.358-1.017.85l-.055.302a4.989 4.989 0 0 1-1.915 3.098h-2c-.69 0-1.25.56-1.25 1.25v5.5c0 .69.56 1.25 1.25 1.25h2.345c.324 0 .644.07.938.205l.307.14Z" fill="#5C5F62"/></svg>
